theme/img/business/txt_m_2.svg

<svg width="96" height="61" viewBox="0 0 96 61" fill="none" xmlns="http://www.w3.org/2000/svg">
<path d="M0 60.1875C0.5 56.5 0.75 51.6719 0.75 45.7031V16.0781C0.75 9.35938 0.5 4.53125 0 1.59375H18.9844V5.67188C18.9844 5.95312 18.9688 6.375 18.9375 6.9375V7.875C23.6875 2.625 29.8125 0 37.3125 0C42.25 0 46.3125 1.15625 49.5 3.46875C51.0312 4.5625 52.3594 6.1875 53.4844 8.34375C55.7969 6.03125 58.0625 4.28125 60.2812 3.09375C64.1875 1.03125 68.6406 0 73.6406 0C81.5469 0 87.2188 2.46875 90.6562 7.40625C93.1562 11 94.4062 15.8594 94.4062 21.9844V45.75C94.4062 51.5 94.6562 56.3125 95.1562 60.1875H75.1875C75.6875 56.5625 75.9375 51.7344 75.9375 45.7031V25.9219C75.9375 22.2344 75.3438 19.6562 74.1562 18.1875C72.9375 16.6562 71.125 15.8906 68.7188 15.8906C66.1875 15.8906 63.875 16.7656 61.7812 18.5156C59.5938 20.3906 57.875 22.9531 56.625 26.2031V45.75C56.625 51.375 56.875 56.1875 57.375 60.1875H37.4531C37.9219 56.6562 38.1719 51.8281 38.2031 45.7031V25.9219C38.2031 23.3594 38.0156 21.5312 37.6406 20.4375C36.6719 17.4375 34.5469 15.9375 31.2656 15.9375C28.3281 15.9375 25.5938 17.2188 23.0625 19.7812C21.4375 21.4375 20.0781 23.6094 18.9844 26.2969V45.7031C18.9844 51.3906 19.2344 56.2188 19.7344 60.1875H0Z" fill="url(#paint0_linear_194_105)"/>
<defs>
<linearGradient id="paint0_linear_194_105" x1="-853.406" y1="24.7344" x2="203.594" y2="24.7344" gradientUnits="userSpaceOnUse">
<stop stop-color="#001F63"/>
<stop offset="1" stop-color="#00E1EC"/>
</linearGradient>
</defs>
</svg>

<svg xmlns="http://www.w3.org/2000/svg" width="96" height="61" fill="none"><path fill="url(#a)" d="M0 60.188q.75-5.532.75-14.485V16.078Q.75 6 0 1.594h18.984v4.078q0 .422-.047 1.266v.937Q26.063 0 37.314 0 44.719 0 49.5 3.469q2.297 1.641 3.984 4.875 3.469-3.47 6.797-5.25Q66.141 0 73.641 0 85.5 0 90.656 7.406q3.75 5.39 3.75 14.578V45.75q0 8.625.75 14.438H75.187q.75-5.439.75-14.485V25.922q0-5.532-1.78-7.735-1.83-2.296-5.438-2.296-3.797 0-6.938 2.625-3.28 2.812-5.156 7.687V45.75q0 8.438.75 14.438H37.453q.703-5.298.75-14.485V25.922q0-3.844-.562-5.485-1.454-4.5-6.375-4.5-4.407 0-8.203 3.844-2.438 2.485-4.079 6.516v19.406q0 8.532.75 14.484z"/><defs><linearGradient id="a" x1="-853.406" x2="203.594" y1="24.734" y2="24.734" gradientUnits="userSpaceOnUse"><stop stop-color="#001F63"/><stop offset="1" stop-color="#00E1EC"/></linearGradient></defs></svg>
